apps/rus_speech/stuff/icons/social/yt.svg

<?xml version="1.0" encoding="UTF-8"?>
<svg width="29px" height="20px" viewBox="0 0 29 20" version="1.1" xmlns="http://www.w3.org/2000/svg" xmlns:xlink="http://www.w3.org/1999/xlink">
    <!-- Generator: Sketch 52.5 (67469) - http://www.bohemiancoding.com/sketch -->
    <title>yt_logo_mono_light</title>
    <desc>Created with Sketch.</desc>
    <g id="Page-2" stroke="none" stroke-width="1" fill="none" fill-rule="evenodd">
        <g id="01_dt_main" transform="translate(-1371.000000, -48.000000)" fill="#505050">
            <g id="header">
                <g id="Group" transform="translate(1331.000000, 48.000000)">
                    <g id="yt_logo_mono_light" transform="translate(40.000000, 0.000000)">
                        <path d="M25.164186,0.81372093 C26.3797674,1.13860465 27.3369767,2.09604651 27.6618605,3.31139535 C28.252093,5.51488372 28.252093,10.1116279 28.252093,10.1116279 C28.252093,10.1116279 28.252093,14.7086047 27.6618605,16.9118605 C27.3369767,18.1272093 26.3797674,19.0848837 25.164186,19.4095349 C22.9609302,20 14.1260465,20 14.1260465,20 C14.1260465,20 5.29139535,20 3.08813953,19.4095349 C1.87255814,19.0848837 0.915348837,18.1272093 0.590465116,16.9118605 C1.84741111e-13,14.7086047 1.84741111e-13,10.1116279 1.84741111e-13,10.1116279 C1.84741111e-13,10.1116279 1.84741111e-13,5.51488372 0.590465116,3.31139535 C0.915348837,2.09604651 1.87255814,1.13860465 3.08813953,0.81372093 C5.29139535,0.223488372 14.1260465,0.223488372 14.1260465,0.223488372 C14.1260465,0.223488372 22.9609302,0.223488372 25.164186,0.81372093 Z M11.3009302,14.3495349 L18.6406977,10.1118605 L11.3009302,5.87372093 L11.3009302,14.3495349 Z" id="Combined-Shape"></path>
                    </g>
                </g>
            </g>
        </g>
    </g>
</svg>

<svg width="29" height="20" xmlns="http://www.w3.org/2000/svg"><path d="M25.164.814a3.538 3.538 0 0 1 2.498 2.497c.59 2.204.59 6.8.59 6.8s0 4.598-.59 6.8a3.538 3.538 0 0 1-2.498 2.499c-2.203.59-11.038.59-11.038.59s-8.835 0-11.038-.59A3.538 3.538 0 0 1 .59 16.912c-.59-2.203-.59-6.8-.59-6.8s0-4.597.59-6.8A3.538 3.538 0 0 1 3.088.813c2.203-.59 11.038-.59 11.038-.59s8.835 0 11.038.59zM11.301 14.35l7.34-4.238-7.34-4.238v8.476z" fill="#505050" fill-rule="evenodd"/></svg>
